!!!!SEGMENT: pl-kk--kk-i-177--001_anonim--hodie-christus-natus-est.krn
!!!cenid: 16xx:1111
!!!COM: Anonim
!!!COM-rismID:
!!!CDT:
!!!CNT:
!!!OTL: Hodie Christus natus est
!!!PDT:
!!!AGN: Sacred
!!!SMS-siglum: PL-Kk
!!!SMS-shelfmark: Kk.I.177
!!!SMS-shelfwork: 001 W
!!!SMS-variant:
!!!SMS-altvar:
!!!NIFC-rismSourceID: 1001147324
!!!NIFC-islandoraID: pl-kk:3859
!!!URL-pdf-islandora: https://repozytorium.nifc.pl/islandora/object/pl-kk%3A3859/datastream/PDF/view
!!!URL-scan: https://polish.musicsources.pl/pl/lokalizacje/galeria/rekopisy/5805 @EN{Scan on Polish Music Herritage in Open Access Website} @PL{Skany w portalu Dziedzictwo Muzyki Polskiej w otwartym dostępie}
!!!ONB-nifc: UWAGA: Tekst w głosie rozpoczyna się od słów "Hodie Salvator apparuit". Utwory w zbiorze: 1. Hodie Christus natus est, 2. Vespere autem sabbati
!!!AIN: 1 vox
!!!key:
**kern	**text
*Ivox	*
*I"Canto 2do.	*
*I'S II	*
*clefC1	*
*k[]	*
*a:	*
*M3/2	*
=1	=1
1.r	.
=2	=2
1.r	.
=3	=3
1.r	.
=4	=4
1.r	.
=5	=5
2r	.
2ee\	Ho-
2cc\	-di-
=6	=6
1g\	-e
2cc\	Sal-
=7	=7
2ee\	-va-
2ee\	-tor
2ff\	ap-
=8	=8
2.ee\	-pa-
4ee\	-ru-
2ee\	-it
=9	=9
2.ee\	ho-
4ee\	-di-
4dd\	-e
4dd\	in
=10	=10
1cc\	ter-
2ee\	-ra
=11	=11
(2.dd\	Ca-
4cc\)	.
2b\	-nunt
=12	=12
2.cc\	An-
4cc\	-ge-
4cc\	-li
4cc\	lae-
!!LO:LB:g=original
=13	=13
2ee\	-tan-
2ee,\	-t(ur)
2cc\	lae-
=14	=14
2a\	-tan-
2a,\	-t(ur)
*	*ij
2cc\	lae-
=15	=15
2ff\	-tan-
2ff,\	-t(ur)
2ee\	lae-
=16	=16
2cc\	-tan-
2cc\	-t(ur)
2ee\	lae-
=17	=17
(2.b\	-tan-
4cc\)	.
2dd\	-t(ur)
*	*Xij
=18	=18
2cc\	Ar-
2cc\	-chan-
2b\	-ge-
=19	=19
1.cc\	-li
=20	=20
2.b\	ho-
4a\	-di-
4g/	-e
4g/	e-
=21	=21
1d/	-xul-
2g/	-tant
=22	=22
2b\	Ju-
2b\	-sti
!!LO:LB:g=original
2cc\	di-
=23	=23
1b\	-cen-
2b\	-teſ
=24	=24
2.ee\	glo-
4dd\	-[ri-
2cc\	-a]
=25	=25
1g\	in
2cc\	ex-
=26	=26
1ee\	-cel-
2ff\	-ſis
=27	=27
1ee\	De-
2ee\	-o
=28	=28
*	*ij
2.gg\	glo-
4ff\	-[ri-
2ee\	-a]
=29-	=29-
1cc\	in
2ee\	ex-
=30	=30
1gg\	-cel-
2aa\	-ſis
=31	=31
2gg\	De-
2gg,\	-o
*	*Xij
2cc\	al-
=32	=32
1ee\	-le-
2cc\	-lu-
=33	=33
1a\	-ia
2cc\	al-
!!LO:LB:g=original
=34	=34
(2.b\	-le-
4cc\)	.
2dd\	.
=35	=35
2cc\	.
2cc\	-lu-
2b\	.
=36	=36
1cc\	-ia
*	*ij
2ee\	al-
=37	=37
2.dd\	-le-
4ee\	.
2ff\	.
=38-	=38-
2ee\	-lu-
2dd\	.
2dd\	-ia
=39	=39
2cc\	al-
2ee\	-le-
2ee\	-lu-
=40	=40
2dd,\	-ia
2dd\	al-
2ee\	-le-
=41	=41
2ee\	.
1dd\	-lu-
=42-	=42-
00cc\;;	-ia
==	==
*-	*-
!!!system-decoration: [(s1)]
!!!EED: Leszek Kubiak
!!!EEV: 2021-04-08
!!!ENC: Katarzyna Serwa
!!!END: 2021-03-18
